src/assets/images/face3d.svg

<svg width="360" height="467" viewBox="0 0 360 467" fill="none" xmlns="http://www.w3.org/2000/svg">
<path d="M137.661 9.61035C167.143 14.2713 198.296 19.1363 227.551 26.3184V26.3193C231.215 27.2226 234.971 27.8577 238.29 29.4365C244.656 37.8242 250.163 47.6732 255.729 57.4902C261.308 67.331 266.946 77.1388 273.546 85.3213C283.708 97.9262 296.067 109.778 308.445 121.636C320.808 133.479 333.191 145.328 343.487 157.976L350.375 180.059C350.326 180.14 350.236 180.255 350.066 180.397C349.822 180.604 349.468 180.83 349.004 181.072C348.077 181.556 346.782 182.069 345.225 182.601C342.114 183.663 338.037 184.775 333.952 185.863C329.876 186.949 325.791 188.011 322.694 188.97C321.148 189.449 319.829 189.908 318.873 190.337C318.397 190.551 317.991 190.765 317.688 190.982C317.411 191.181 317.109 191.458 317.035 191.827L317.016 191.924L317.034 192.021L337.07 294.914L285.268 309.768L284.83 309.893L284.913 310.34L304.013 413.017L98.3896 465.596L124.972 339.9L125.025 339.644L124.845 339.453L121.129 335.531L121.096 335.496L121.057 335.469L32.75 272.309C22.1955 232.132 8.58876 192.406 0.512695 151.912L23.5176 64.7324L137.661 9.61035Z" fill="#AD8DFF" stroke="#AD8DFF"/>
<path d="M236.924 17.293C240.304 18.1134 243.75 18.7333 246.85 20.0977L238.511 28.4355C235.398 26.9991 231.912 26.3206 228.662 25.5547L236.924 17.293Z" fill="#AD8DFF" stroke="#AD8DFF" stroke-linejoin="round"/>
<path d="M247.652 20.7031C253.904 29.0124 259.334 38.7207 264.82 48.3984C270.32 58.099 275.878 67.7666 282.357 75.8779L273.977 84.2588C267.585 76.2379 262.084 66.6732 256.599 56.9971C251.098 47.2942 245.61 37.4789 239.274 29.0811L247.652 20.7031Z" fill="#AD8DFF" stroke="#AD8DFF" stroke-linejoin="round"/>
<path d="M282.991 76.6611C293.087 89.105 305.304 100.822 317.54 112.544C329.814 124.301 342.105 136.066 352.356 148.61L343.975 156.991C333.69 144.42 321.378 132.638 309.14 120.914C296.867 109.158 284.672 97.4582 274.61 85.042L282.991 76.6611Z" fill="#AD8DFF" stroke="#AD8DFF" stroke-linejoin="round"/>
<path d="M359.431 170.851L351.138 179.144L344.505 157.874L352.799 149.58L359.431 170.851Z" fill="#AD8DFF" stroke="#AD8DFF" stroke-linejoin="round"/>
<path d="M146.852 0.533203C176.015 5.14357 206.808 9.95893 235.779 17.0176L227.517 25.2812C198.563 18.1901 167.773 13.358 138.633 8.75195L146.852 0.533203Z" fill="#AD8DFF" stroke="#AD8DFF" stroke-linejoin="round"/>
<path d="M350.554 179.73C350.506 179.778 350.468 179.836 350.443 179.898L350.423 179.963C350.406 180.029 350.337 180.161 350.123 180.352C349.916 180.536 349.616 180.74 349.218 180.96C348.423 181.399 347.306 181.865 345.948 182.351C343.236 183.32 339.637 184.337 335.897 185.345C332.168 186.35 328.295 187.347 325.069 188.269C323.455 188.73 321.993 189.175 320.784 189.596C320.668 189.636 320.554 189.679 320.441 189.72L326.974 183.188C327.043 183.119 327.09 183.03 327.109 182.934C327.103 182.967 327.107 182.902 327.304 182.75C327.482 182.612 327.753 182.453 328.123 182.275C328.86 181.922 329.911 181.533 331.201 181.114C333.778 180.279 337.236 179.351 340.878 178.384C344.513 177.418 348.328 176.414 351.596 175.429C353.434 174.875 355.119 174.317 356.512 173.772L350.554 179.73Z" fill="#AD8DFF" stroke="#AD8DFF" stroke-linejoin="round"/>
<path d="M346.201 286.011L337.961 294.251L318.068 192.092L326.309 183.852L346.201 286.011Z" fill="#AD8DFF" stroke="#AD8DFF" stroke-linejoin="round"/>
<path d="M137.291 8.67773L25.5352 62.6484L32.4805 55.7031L144.234 1.73438L137.291 8.67773Z" fill="#AD8DFF" stroke="#AD8DFF" stroke-linejoin="round"/>
<path d="M337.387 294.824L287.126 309.236L294.761 301.603L345.021 287.19L337.387 294.824Z" fill="#AD8DFF" stroke="#AD8DFF" stroke-linejoin="round"/>
<path d="M313.143 404.128L304.909 412.361L285.945 310.418L294.18 302.184L313.143 404.128Z" fill="#AD8DFF" stroke="#AD8DFF" stroke-linejoin="round"/>
<path d="M8.64258 142.547L0.955078 150.234L23.542 64.6416L31.2285 56.9541L8.64258 142.547Z" fill="#AD8DFF" stroke="#AD8DFF" stroke-linejoin="round"/>
<path d="M8.78613 143.819C16.8803 184.032 30.3941 223.598 40.8477 263.371L32.5732 271.646C22.0567 231.744 8.57801 192.282 0.542969 152.062L8.78613 143.819Z" fill="#AD8DFF" stroke="#AD8DFF" stroke-linejoin="round"/>
<path d="M132.88 330.697L124.495 339.081L121.467 335.887L129.852 327.502L132.88 330.697Z" fill="#AD8DFF" stroke="#AD8DFF" stroke-linejoin="round"/>
<path d="M129.091 326.846L120.715 335.222L33.0869 272.548L41.4629 264.172L129.091 326.846Z" fill="#AD8DFF" stroke="#AD8DFF" stroke-linejoin="round"/>
<path d="M304.336 412.936L99.4082 465.337L107.115 457.631L312.042 405.23L304.336 412.936Z" fill="#AD8DFF" stroke="#AD8DFF" stroke-linejoin="round"/>
<path d="M106.372 456.931L98.5752 464.728L124.941 340.046L132.738 332.249L106.372 456.931Z" fill="#AD8DFF" stroke="#AD8DFF" stroke-linejoin="round"/>
<mask id="path-18-inside-1_49_2145" fill="white">
<path d="M106.856 457.182H106.831L97.7383 466.274H97.764L106.856 457.182Z"/>
</mask>
<path d="M106.856 457.182H106.831L97.7383 466.274H97.764L106.856 457.182Z" fill="#AD8DFF"/>
<path d="M106.831 457.182V456.182C106.565 456.182 106.311 456.287 106.123 456.475L106.831 457.182ZM106.856 457.182L107.563 457.889C107.849 457.603 107.935 457.173 107.78 456.799C107.625 456.425 107.261 456.182 106.856 456.182V457.182ZM97.764 466.274V467.274C98.0292 467.274 98.2836 467.169 98.4711 466.981L97.764 466.274ZM97.7383 466.274L97.0312 465.567C96.7452 465.853 96.6596 466.283 96.8144 466.657C96.9692 467.03 97.3338 467.274 97.7383 467.274V466.274ZM106.831 457.182V458.182H106.856V457.182V456.182H106.831V457.182ZM106.856 457.182L106.149 456.475L97.0569 465.567L97.764 466.274L98.4711 466.981L107.563 457.889L106.856 457.182ZM97.764 466.274V465.274H97.7383V466.274V467.274H97.764V466.274ZM97.7383 466.274L98.4454 466.981L107.538 457.889L106.831 457.182L106.123 456.475L97.0312 465.567L97.7383 466.274Z" fill="#AD8DFF" mask="url(#path-18-inside-1_49_2145)"/>
<path d="M106.857 457.18L313.684 404.294L294.499 301.157L346.743 286.177L326.62 182.834C327.16 180.146 359.1 174.591 360 170.991L353.031 148.643C332.367 123.235 303.307 101.067 283.03 75.916C269.888 59.6244 260.553 36.8265 247.708 19.9434C244.3 18.2975 240.417 17.6417 236.765 16.7416C207.435 9.54093 176.202 4.6676 146.679 0L32.188 55.2911L9.0943 142.805C17.1822 183.412 30.8507 223.299 41.4074 263.52L129.86 326.783L133.576 330.705L106.831 457.18H106.857Z" fill="#C7B1FF"/>
<path d="M122.156 121.544L261.027 66.8633V130.657L122.156 171.016V121.544Z" fill="black"/>
<path d="M146.586 120.644L237.881 84.8652V126.607L146.586 153.015V120.644Z" fill="white"/>
</svg>

<svg xmlns="http://www.w3.org/2000/svg" width="360" height="467" fill="none" viewBox="0 0 360 467">
    <path fill="#ad8dff" stroke="#ad8dff" d="M137.66 9.61c29.48 4.66 60.64 9.53 89.9 16.7 3.66.91 7.41 1.55 10.73 3.13 6.37 8.38 11.87 18.23 17.44 28.05 5.58 9.84 11.22 19.65 17.82 27.83 10.16 12.6 22.52 24.46 34.9 36.32 12.36 11.84 24.74 23.69 35.04 36.34l6.88 22.08q-.05.13-.3.34-.37.3-1.07.67c-.92.49-2.22 1-3.77 1.53a186 186 0 0 1-11.28 3.26c-4.07 1.09-8.16 2.15-11.26 3.11-1.54.48-2.86.94-3.82 1.37q-.72.31-1.18.64c-.28.2-.58.48-.65.85l-.02.1.01.1 20.04 102.88-51.8 14.86-.44.12.08.45 19.1 102.68L98.4 465.6l26.58-125.7.06-.26-.19-.19-3.71-3.92-.03-.03-.04-.03-88.31-63.16C22.2 232.13 8.59 192.4.51 151.9l23-87.18z"/>
    <path fill="#ad8dff" stroke="#ad8dff" stroke-linejoin="round" d="M236.92 17.3c3.38.81 6.83 1.43 9.93 2.8l-8.34 8.34c-3.11-1.44-6.6-2.12-9.85-2.89zm10.73 3.4c6.25 8.31 11.68 18.02 17.17 27.7 5.5 9.7 11.06 19.37 17.54 27.48l-8.38 8.38c-6.4-8.02-11.9-17.59-17.38-27.26-5.5-9.7-10.99-19.52-17.33-27.92zM283 76.66c10.09 12.45 22.3 24.16 34.54 35.88 12.27 11.76 24.57 23.53 34.82 36.07l-8.38 8.38c-10.29-12.57-22.6-24.35-34.84-36.08-12.27-11.75-24.47-23.45-34.53-35.87zm76.43 94.19-8.3 8.3-6.62-21.28 8.29-8.29zM146.85.53c29.16 4.61 59.96 9.43 88.93 16.49l-8.26 8.26c-28.96-7.09-59.75-11.92-88.89-16.53z"/>
    <path fill="#ad8dff" stroke="#ad8dff" stroke-linejoin="round" d="m350.55 179.73-.1.17-.03.06c-.01.07-.08.2-.3.4q-.3.27-.9.6-1.22.66-3.27 1.4c-2.71.96-6.31 1.98-10.05 2.98-3.73 1.01-7.6 2-10.83 2.93-1.62.46-3.08.9-4.29 1.33l-.34.12 6.53-6.53a.5.5 0 0 0 .14-.26c0 .04 0-.03.2-.18q.25-.21.81-.47c.74-.36 1.8-.75 3.08-1.17a207 207 0 0 1 9.68-2.73c3.63-.96 7.45-1.97 10.72-2.95a67 67 0 0 0 4.91-1.66z"/>
    <path fill="#ad8dff" stroke="#ad8dff" stroke-linejoin="round" d="m346.2 286.01-8.24 8.24-19.9-102.16 8.25-8.24zM137.3 8.68 25.53 62.65l6.94-6.95L144.23 1.73z"/>
    <path fill="#ad8dff" stroke="#ad8dff" stroke-linejoin="round" d="m337.39 294.82-50.26 14.42 7.63-7.64 50.26-14.41z"/>
    <path fill="#ad8dff" stroke="#ad8dff" stroke-linejoin="round" d="m313.14 404.13-8.23 8.23-18.97-101.94 8.24-8.24zM8.64 142.55l-7.68 7.68 22.58-85.59 7.69-7.69zm.15 1.27c8.09 40.21 21.6 79.78 32.06 119.55l-8.28 8.28c-10.51-39.9-24-79.37-32.03-119.59zM132.88 330.7l-8.38 8.38-3.03-3.2 8.38-8.38zm-3.78-3.85-8.38 8.37-87.63-62.67 8.37-8.38z"/>
    <path fill="#ad8dff" stroke="#ad8dff" stroke-linejoin="round" d="M304.34 412.94 99.4 465.34l7.7-7.7 204.93-52.41zm-197.97 43.99-7.8 7.8 26.37-124.68 7.8-7.8z"/>
    <mask id="a" fill="#fff">
        <path d="M106.86 457.18h-.03l-9.1 9.1h.03z"/>
    </mask>
    <path fill="#ad8dff" d="M106.86 457.18h-.03l-9.1 9.1h.03z"/>
    <path fill="#ad8dff" d="M106.83 457.18v-1a1 1 0 0 0-.7.3zm.03 0 .7.7a1 1 0 0 0-.7-1.7zm-9.1 9.1v1a1 1 0 0 0 .71-.3zm-.02 0-.7-.71a1 1 0 0 0 .7 1.7zm9.1-9.1v1h.02v-2h-.03zm.02 0-.71-.7-9.1 9.09.71.7.71.71 9.1-9.1zm-9.1 9.1v-1h-.02v2h.02zm-.02 0 .7.7 9.1-9.1-.7-.7-.72-.7-9.09 9.09z" mask="url(#a)"/>
    <path fill="#c7b1ff" d="m106.86 457.18 206.82-52.89-19.18-103.13 52.24-14.98-20.12-103.35c.54-2.68 32.48-8.24 33.38-11.84l-6.97-22.35c-20.66-25.4-49.72-47.57-70-72.72-13.14-16.3-22.48-39.1-35.32-55.98-3.41-1.64-7.3-2.3-10.95-3.2C207.45 9.54 176.2 4.67 146.69 0L32.18 55.3 9.1 142.8c8.1 40.61 21.76 80.5 32.32 120.72l88.45 63.26 3.72 3.93-26.75 126.47z"/>
    <path fill="#000" d="m122.16 121.54 138.87-54.68v63.8l-138.87 40.36z"/>
    <path fill="#fff" d="m146.59 120.64 91.3-35.77v41.74l-91.3 26.4z"/>
</svg>
